X:529
T:Entertainer
M:4/4
L:1/8
Q:1/8=140
K:G % transposed from C
A^A|B g2 B g2 Bg-|g4- gga^a|bgab- bf a2|g6 A^A|
B g2 B g2 Bg-|g6 ed|^cegb- bage|a6 A^A|
B g2 B g2 Bg-|g4- gga^a|b g ab- bf a2|
g6 ga|bgab- bgag|bgab- bgag|bgab- bf a2|g4 z||
Bc^c|d2 ed- dBc^c|d2 ed- dbgd|efga baga|
d2 z dBc|d2 ed- dBc^c|d2 ed- dde^e|
f f2 f- fe^cA|d4 z Bc^c|d2 ed- dBc^c|
d2 ed- dbgd|efga baga|g4 gd^cd|g2 eg- gege|
dgbd'- d'bgd|e2 g2 b a3|g4 z||
